svg/color/meow.svg

<svg width="64" height="65" viewBox="0 0 64 65" fill="none" xmlns="http://www.w3.org/2000/svg">
<g clip-path="url(#clip0_11313_5298)">
<rect y="0.303711" width="64" height="64" rx="32" fill="black"/>
<path d="M16.6542 16.9579C8.24881 25.3605 9.3749 38.9617 18.3747 46.0581C12.3444 38.4186 12.8274 27.2867 19.9038 20.2074C26.983 13.1311 38.1149 12.6481 45.7544 18.6784C38.658 9.67861 25.0567 8.55252 16.6542 16.9579Z" fill="#01F4CB"/>
<path d="M47.475 47.7787C55.8775 39.3762 54.7543 25.7749 45.7545 18.6785C51.782 26.318 51.3018 37.447 44.2254 44.5263C37.1433 51.6027 26.0142 52.0856 18.3748 46.0581C25.4683 55.058 39.0696 56.1812 47.475 47.7787Z" fill="#01F4CB"/>
<mask id="mask0_11313_5298" style="mask-type:luminance" maskUnits="userSpaceOnUse" x="0" y="0" width="64" height="65">
<path d="M64 0.303711H0V64.3037H64V0.303711Z" fill="white"/>
<path d="M63.8799 0.423828V64.1836H0.120117V0.423828H63.8799Z" stroke="white" stroke-width="0.24"/>
</mask>
<g mask="url(#mask0_11313_5298)">
</g>
</g>
<rect x="0.5" y="0.803711" width="63" height="63" rx="31.5" stroke="#070B14" stroke-opacity="0.15"/>
<defs>
<clipPath id="clip0_11313_5298">
<rect y="0.303711" width="64" height="64" rx="32" fill="white"/>
</clipPath>
</defs>
</svg>

<svg xmlns="http://www.w3.org/2000/svg" width="64" height="65" fill="none" viewBox="0 0 64 65"><g clip-path="url(#meow_svg-a)"><rect width="64" height="64" y=".304" fill="#000" rx="32"/><path fill="#01F4CB" d="M16.654 16.958c-8.405 8.403-7.28 22.004 1.72 29.1-6.03-7.64-5.547-18.771 1.53-25.85 7.079-7.077 18.21-7.56 25.85-1.53-7.096-9-20.697-10.125-29.1-1.72m30.821 30.821c8.402-8.403 7.28-22.004-1.72-29.1 6.027 7.639 5.547 18.768-1.53 25.847-7.082 7.077-18.21 7.56-25.85 1.532 7.093 9 20.695 10.123 29.1 1.72"/></g><rect width="63" height="63" x=".5" y=".804" stroke="#070B14" stroke-opacity=".15" rx="31.5"/><defs><clipPath id="meow_svg-a"><rect width="64" height="64" y=".304" fill="#fff" rx="32"/></clipPath></defs></svg>
